X: 31818
T: Patsy Touhey's
R: reel
M: 4/4
K: Dmajor
BE (3EDE BAFE|D2 (3FED ADFD|BE (3EDE BAFA|(3B^cd eg fded|
BE (3EDE BAFE|D2 (3FED ADFD|BE (3EDE BAFA|(3B^cd eg fde2||
e2 (3gfe bege|defg agfg|e2 (3gfe 'bege|defa geed|
e2 (3gfe Bege|defg ae (3fga|'bgaf gefd|(3B^cd eg fe e2||

